assets/images/vector/icons/envelope_icon.svg

<svg fill="none" height="49" viewBox="0 0 59 49" width="59" xmlns="http://www.w3.org/2000/svg"><g stroke="#111" stroke-linecap="round" stroke-linejoin="round" stroke-width="10"><path d="m5 13.3333 22.5567 12.4433c1.0033.5533 2.2166.5533 3.22 0l22.5566-12.4433"/><path d="m11.6673 43.3333h35c3.6819 0 6.6667-2.9848 6.6667-6.6667v-25c0-3.68191-2.9848-6.66668-6.6667-6.66668h-35c-3.68188 0-6.66665 2.98477-6.66665 6.66668v25c0 3.6819 2.98477 6.6667 6.66665 6.6667z"/></g></svg>

<svg width="59" height="49" viewBox="0 0 59 49" fill="none" xmlns="http://www.w3.org/2000/svg">
<path d="M5 13.3333L27.5567 25.7766C28.56 26.3299 29.7733 26.3299 30.7767 25.7766L53.3333 13.3333" stroke="#111111" stroke-width="10" stroke-linecap="round" stroke-linejoin="round"/>
<path d="M11.6673 43.3333L46.6673 43.3333C50.3492 43.3333 53.334 40.3485 53.334 36.6666L53.334 11.6666C53.334 7.98469 50.3492 4.99992 46.6673 4.99992L11.6673 4.99992C7.98542 4.99992 5.00065 7.98469 5.00065 11.6666L5.00065 36.6666C5.00065 40.3485 7.98542 43.3333 11.6673 43.3333Z" stroke="#111111" stroke-width="10" stroke-linecap="round" stroke-linejoin="round"/>
</svg>
